X: 9206
T: Dan Breen's
R: reel
M: 4/4
K: Gmajor
|:Bd|{ef}e2 dB ABAG|EA{B}AG{AB}A2 gf|{ef}e2 dB ABAG|EGGF G2:|
|:Bd|{ef}e2 ge edBd|eA (3AAA eABd|{ef}e2 ge edBA|(3B^cd ef g2:|

